build/flags/AntiguaAndBarbuda.svg

<svg xmlns="http://www.w3.org/2000/svg" fill="none" viewBox="0 0 28 28" focusable="false"><mask id="Antigua_and_Barbuda_svg__c" width="28" height="20" x="0" y="4" maskUnits="userSpaceOnUse"><g fill-rule="evenodd" filter="url(#Antigua_and_Barbuda_svg__a)"><path fill="#262626" d="M0 4L28 4L14 24L0 4Z"/><path stroke="#969696" stroke-opacity="0" stroke-width="0" d="M28 4L14 24L0 4L28 4Z"/></g></mask><defs><filter id="Antigua_and_Barbuda_svg__a"><feColorMatrix values="0 0 0 0 1 0 0 0 0 1 0 0 0 0 1 0 0 0 1 0"/></filter><filter id="Antigua_and_Barbuda_svg__d" width="12" height="11.543" x="8" y="6" color-interpolation-filters="sRGB" filterUnits="userSpaceOnUse"><feFlood flood-opacity="0" result="BackgroundImageFix"/><feOffset in="SourceAlpha"/><feColorMatrix values="0 0 0 0 0 0 0 0 0 0 0 0 0 0 0 0 0 0 0.06 0"/><feBlend in2="BackgroundImageFix" result="effect_dropShadow_1"/><feBlend in="SourceGraphic" in2="effect_dropShadow_1" result="shape"/></filter><filter id="Antigua_and_Barbuda_svg__e" width="28" height="5.333" x="0" y="12" color-interpolation-filters="sRGB" filterUnits="userSpaceOnUse"><feFlood flood-opacity="0" result="BackgroundImageFix"/><feOffset in="SourceAlpha"/><feColorMatrix values="0 0 0 0 0 0 0 0 0 0 0 0 0 0 0 0 0 0 0.06 0"/><feBlend in2="BackgroundImageFix" result="effect_dropShadow_1"/><feBlend in="SourceGraphic" in2="effect_dropShadow_1" result="shape"/></filter></defs><mask id="Antigua_and_Barbuda_svg__b" width="28" height="20" x="0" y="4" maskUnits="userSpaceOnUse"><g filter="url(#Antigua_and_Barbuda_svg__a)"><rect width="28" height="20" y="4" fill="#FFF" rx="3"/><rect width="28" height="20" y="4" stroke="#969696" stroke-opacity="0" stroke-width="0" rx="3"/></g></mask><path fill="none" d="M0 0H28V28H0z"/><rect width="28" height="20" y="4" fill="#FFF" rx="3"/><rect width="28" height="20" y="4" rx="3"/><g mask="url(#Antigua_and_Barbuda_svg__b)"><path fill="#E2243B" d="M0 4H28V24H0z"/><path d="M0 4H28V24H0z"/><path fill="#262626" fill-rule="evenodd" d="M0 4L28 4L14 24L0 4Z"/><path d="M28 4L14 24L0 4L28 4Z"/><g mask="url(#Antigua_and_Barbuda_svg__c)"><g filter="url(#Antigua_and_Barbuda_svg__d)"><path fill="#FFCF3C" fill-rule="evenodd" d="M14 15L11.7039 17.5433L11.8787 14.1213L8.45672 14.2961L11 12L8 9.33333L11.8787 10L11.3333 6L14 9.33333L16.6667 6L16.1213 10L20 9.33333L17 12L19.5433 14.2961L16.1213 14.1213L16.2961 17.5433L14 15Z"/><path d="M11.7039 17.5433L11.8787 14.1213L8.45672 14.2961L11 12L8 9.33333L11.8787 10L11.3333 6L14 9.33333L16.6667 6L16.1213 10L20 9.33333L17 12L19.5433 14.2961L16.1213 14.1213L16.2961 17.5433L14 15L11.7039 17.5433Z"/></g><g filter="url(#Antigua_and_Barbuda_svg__e)"><path fill="#1984D8" fill-rule="evenodd" d="M0 17.3333L28 17.3333L28 12L0 12L0 17.3333Z"/><path d="M28 17.3333L28 12L0 12L0 17.3333L28 17.3333Z"/></g><path fill="#FFF" fill-rule="evenodd" d="M0 24L28 24L28 17.3334L0 17.3334L0 24Z"/><path d="M28 24L28 17.3334L0 17.3334L0 24L28 24Z"/></g></g></svg>

<svg xmlns="http://www.w3.org/2000/svg" fill="none" viewBox="0 0 28 28" focusable="false"><defs><filter id="Antigua_and_Barbuda_svg__c" width="12" height="11.543" x="8" y="6" color-interpolation-filters="sRGB" filterUnits="userSpaceOnUse"><feFlood flood-opacity="0" result="BackgroundImageFix"/><feColorMatrix in="SourceAlpha" result="hardAlpha" values="0 0 0 0 0 0 0 0 0 0 0 0 0 0 0 0 0 0 127 0"/><feOffset/><feGaussianBlur/><feComposite in2="hardAlpha" k2="-1" k3="1" operator="out"/><feColorMatrix values="0 0 0 0 0 0 0 0 0 0 0 0 0 0 0 0 0 0 0.059 0"/><feBlend in2="BackgroundImageFix" result="effect_dropShadow_1"/><feBlend in="SourceGraphic" in2="effect_dropShadow_1" result="shape"/></filter><filter id="Antigua_and_Barbuda_svg__d" width="28" height="5.333" x="0" y="12" color-interpolation-filters="sRGB" filterUnits="userSpaceOnUse"><feFlood flood-opacity="0" result="BackgroundImageFix"/><feColorMatrix in="SourceAlpha" result="hardAlpha" values="0 0 0 0 0 0 0 0 0 0 0 0 0 0 0 0 0 0 127 0"/><feOffset/><feGaussianBlur/><feComposite in2="hardAlpha" k2="-1" k3="1" operator="out"/><feColorMatrix values="0 0 0 0 0 0 0 0 0 0 0 0 0 0 0 0 0 0 0.059 0"/><feBlend in2="BackgroundImageFix" result="effect_dropShadow_1"/><feBlend in="SourceGraphic" in2="effect_dropShadow_1" result="shape"/></filter></defs><path fill="none" d="M0 0h28v28H0z"/><rect width="28" height="20" y="4" fill="#FFF" rx="3"/><rect width="28" height="20" y="4" rx="3"/><mask id="Antigua_and_Barbuda_svg__a" width="28" height="20" x="0" y="4" mask-type="alpha" maskUnits="userSpaceOnUse"><rect width="28" height="20" y="4" fill="#FFF" rx="3"/><rect width="28" height="20" y="4" stroke="#979797" stroke-opacity="0" stroke-width="0" rx="3"/></mask><g mask="url(#Antigua_and_Barbuda_svg__a)"><path fill="#E2243B" d="M0 4h28v20H0z"/><path d="M0 4h28v20H0z"/></g><g mask="url(#Antigua_and_Barbuda_svg__a)"><path fill="#262626" fill-rule="evenodd" d="M0 4h28L14 24z"/><path d="M28 4 14 24 0 4z"/><mask id="Antigua_and_Barbuda_svg__b" width="28" height="20" x="0" y="4" mask-type="alpha" maskUnits="userSpaceOnUse"><path fill="#262626" fill-rule="evenodd" d="M0 4h28L14 24z"/><path stroke="#979797" stroke-opacity="0" stroke-width="0" d="M28 4 14 24 0 4z"/></mask><g mask="url(#Antigua_and_Barbuda_svg__b)"><g filter="url(#Antigua_and_Barbuda_svg__c)"><path fill="#FFCF3C" fill-rule="evenodd" d="m14 15-2.3 2.54.17-3.42-3.42.17L11 12 8 9.33l3.87.67-.54-4L14 9.33 16.66 6l-.54 4L20 9.33 17 12l2.54 2.29-3.42-.17.17 3.42z"/></g><path d="m11.7 17.54.17-3.42-3.42.17L11 12 8 9.33l3.87.67-.54-4L14 9.33 16.66 6l-.54 4L20 9.33 17 12l2.54 2.29-3.42-.17.17 3.42L14 15z"/></g><g mask="url(#Antigua_and_Barbuda_svg__b)"><g filter="url(#Antigua_and_Barbuda_svg__d)"><path fill="#1984D8" fill-rule="evenodd" d="M0 17.33h28V12H0z"/></g><path d="M28 17.33V12H0v5.33z"/></g><g mask="url(#Antigua_and_Barbuda_svg__b)"><path fill="#FFF" fill-rule="evenodd" d="M0 24h28v-6.67H0z"/><path d="M28 24v-6.67H0V24z"/></g></g></svg>
